fa/bell.svg

<svg xmlns="http://www.w3.org/2000/svg" viewBox="0 0 448 512" height="1em" width="1em">
  <path d="M256 32v19.2c73 14.83 128 79.4 128 156.8v18.8c0 47.1 17.3 92.4 48.5 127.6l7.4 8.3c8.4 9.5 10.5 22.9 5.3 34.4S428.6 416 416 416H32c-12.6 0-24.029-7.4-29.191-18.9-5.162-11.5-3.097-24.9 5.275-34.4l7.416-8.3C46.74 319.2 64 273.9 64 226.8V208c0-77.4 54.1-141.97 128-156.8V32c0-17.67 14.3-32 32-32s32 14.33 32 32zm-32 480c-17 0-33.3-6.7-45.3-18.7S160 464.1 160 448h128c0 16.1-6.7 33.3-18.7 45.3S240.1 512 224 512z"/>
</svg>

<svg xmlns="http://www.w3.org/2000/svg" viewBox="0 0 448 512" height="1em" width="1em">
  <path d="M256 32V51.2C329 66.03 384 130.6 384 208V226.8C384 273.9 401.3 319.2 432.5 354.4L439.9 362.7C448.3 372.2 450.4 385.6 445.2 397.1C440 408.6 428.6 416 416 416H32C19.4 416 7.971 408.6 2.809 397.1C-2.353 385.6-.2883 372.2 8.084 362.7L15.5 354.4C46.74 319.2 64 273.9 64 226.8V208C64 130.6 118.1 66.03 192 51.2V32C192 14.33 206.3 0 224 0C241.7 0 256 14.33 256 32H256zM224 512C207 512 190.7 505.3 178.7 493.3C166.7 481.3 160 464.1 160 448H288C288 464.1 281.3 481.3 269.3 493.3C257.3 505.3 240.1 512 224 512z"/>
</svg>
